azure-icons/Static-Apps.svg

<svg xmlns="http://www.w3.org/2000/svg" viewBox="0 0 18 18"><defs><linearGradient id="a" x1="9" y1="16.236" x2="9" y2="5.599" gradientUnits="userSpaceOnUse"><stop offset="0" stop-color="#005ba1"/><stop offset=".775" stop-color="#0078d4"/></linearGradient></defs><path d="M0 5.6h18v10.035a.6.6 0 01-.6.6H.6a.6.6 0 01-.6-.6V5.6z" fill="url(#a)"/><rect x="1.309" y="6.657" width="15.527" height="8.514" rx=".6" fill="#5ea0ef" opacity=".6"/><path d="M.6 1.764h16.8a.6.6 0 01.6.6V5.6H0V2.365a.6.6 0 01.6-.601z" fill="#005ba1"/><path d="M7.109 13.217l-.321.32a.144.144 0 01-.205 0l-2.325-2.332a.29.29 0 010-.41l.321-.32 2.531 2.537a.145.145 0 01-.001.205zm3.653 0l.321.32a.144.144 0 00.205 0l2.325-2.332a.29.29 0 000-.41l-.322-.32-2.53 2.537a.145.145 0 00.001.205z" fill="#fff" opacity=".8"/><path d="M6.831 8.433l.32.321a.144.144 0 010 .205l-2.575 2.568-.32-.322a.289.289 0 010-.41l2.37-2.363a.145.145 0 01.205.001zm4.207 0l-.32.321a.144.144 0 000 .205l2.575 2.568.32-.321a.292.292 0 000-.411l-2.37-2.362a.144.144 0 00-.205.001zM8.159 14.363l-.513-.163a.105.105 0 01-.067-.131l2.09-6.529a.1.1 0 01.13-.067l.513.164a.1.1 0 01.067.13L8.289 14.3a.1.1 0 01-.13.063zM3.166 3.847a.76.76 0 11-.76-.76.76.76 0 01.76.76zm1.634-.76a.76.76 0 10.76.76.76.76 0 00-.76-.76zm2.393 0a.76.76 0 10.76.76.76.76 0 00-.762-.76z" fill="#fff"/></svg>

<svg xmlns="http://www.w3.org/2000/svg" width="18" height="18" viewBox="0 0 18 18"><defs><linearGradient id="e6ad4df9-0ab7-4b49-9706-620b42380f0b" x1="9" y1="16.236" x2="9" y2="5.599" gradientUnits="userSpaceOnUse"><stop offset="0" stop-color="#005ba1" /><stop offset="0.775" stop-color="#0078d4" /></linearGradient></defs><g id="e7885b9c-9714-4276-bd41-591cb7e086a5"><path d="M0,5.6H18a0,0,0,0,1,0,0V15.635a.6.6,0,0,1-.6.6H.6a.6.6,0,0,1-.6-.6V5.6A0,0,0,0,1,0,5.6Z" fill="url(#e6ad4df9-0ab7-4b49-9706-620b42380f0b)" /><rect x="1.309" y="6.657" width="15.527" height="8.514" rx="0.6" fill="#5ea0ef" opacity="0.6" /><path d="M.6,1.764H17.4a.6.6,0,0,1,.6.6V5.6a0,0,0,0,1,0,0H0a0,0,0,0,1,0,0V2.365A.6.6,0,0,1,.6,1.764Z" fill="#005ba1" /><path d="M7.109,13.217l-.321.32a.144.144,0,0,1-.205,0L4.258,11.205a.29.29,0,0,1,0-.41l.321-.32L7.11,13.012A.145.145,0,0,1,7.109,13.217Zm3.653,0,.321.32a.144.144,0,0,0,.205,0l2.325-2.332a.29.29,0,0,0,0-.41l-.322-.32-2.53,2.537A.145.145,0,0,0,10.762,13.217Z" fill="#fff" opacity="0.8" /><path d="M6.831,8.433l.32.321a.144.144,0,0,1,0,.205L4.576,11.527l-.32-.322a.289.289,0,0,1,0-.41l2.37-2.363A.145.145,0,0,1,6.831,8.433Zm4.207,0-.32.321a.144.144,0,0,0,0,.205l2.575,2.568.32-.321a.292.292,0,0,0,0-.411l-2.37-2.362A.144.144,0,0,0,11.038,8.434Z" fill="#fff" /><path d="M8.159,14.363,7.646,14.2a.105.105,0,0,1-.067-.131L9.669,7.54a.1.1,0,0,1,.13-.067l.513.164a.1.1,0,0,1,.067.13L8.289,14.3A.1.1,0,0,1,8.159,14.363Z" fill="#fff" /><path d="M3.166,3.847a.76.76,0,1,1-.76-.76A.76.76,0,0,1,3.166,3.847ZM4.8,3.087a.76.76,0,1,0,.76.76A.76.76,0,0,0,4.8,3.087Zm2.393,0a.76.76,0,1,0,.76.76A.76.76,0,0,0,7.191,3.087Z" fill="#fff" /></g></svg>
